X: 6
T: The Road To Skye
R: jig
M: 6/8
L: 1/8
K: Gmaj
~G3 EGD | GBd e2f| gdc ~B3| cBc E2D |GFG E/F/GD | GBd e2f| gdc ~B3 | cAF G2F :||: GBd GBd | GBd cAF | GBd eag | fd^c def|gbg ~f3 | e/f/ge dBG | cBc Adc | BGF GBA :|


Tune 1709	Setting 15133

